source/img/icon-gift.svg

<svg version="1.1" id="Layer_1" xmlns="http://www.w3.org/2000/svg" xmlns:xlink="http://www.w3.org/1999/xlink" x="0px" y="0px" width="63px" height="75.084px" viewBox="0 0 63 75.084" enable-background="new 0 0 63 75.084" xml:space="preserve">
  <path d="M60.165,22.23h-0.103H35.758c13.604-6.815,14.688-11.115,14.188-13.52c-1.145-3.916-5.604-6.938-9.848-5.341 c-5.484,2.063-7.029,10.262-8.514,16.19C29.69,13.561,27.858,5.91,23.573,2.034c-1.242-1.125-3.049-2.237-5.676-2.003 c-3.965,0.352-9.652,5.317-7.344,10.849c2.217,5.313,9.539,8.67,14.354,11.35H2.834C1.275,22.23,0,23.506,0,25.065V36.25 c0,1.559,1.275,2.834,2.835,2.834h0.27v35.999h56.958V39.084h0.104c1.561,0,2.835-1.275,2.835-2.834V25.065 C63,23.506,61.725,22.23,60.165,22.23z M41.766,5.873c2.07-0.306,4.907,1.283,5.176,3.171c0.386,2.723-3.349,5.192-5.008,6.343 c-2.484,1.723-4.853,2.611-7.178,4.006C35.628,15.748,37.268,6.539,41.766,5.873z M19.232,15.721 c-2.19-1.467-6.444-4.378-6.342-7.678c0.11-3.552,5.655-6.491,8.68-3.839c3.797,3.331,5.625,10.972,7.01,16.357 C25.381,19.042,22.35,17.808,19.232,15.721z M25.114,72.147H6.042V39.084h19.072V72.147z M25.114,36.084H3V25.23h22.114V36.084z  M35.115,72.146h-7.063V25.23h7.063V72.146z M57.125,72.147H38.053V39.084h19.072V72.147z M60,36.084H38.053V25.23H60V36.084z"/>
</svg>

<svg xmlns="http://www.w3.org/2000/svg" width="63" height="75.08" viewBox="0 0 63 75.08">
  <defs/>
  <path fill="#81b3d2" d="M60.17 22.23H35.76C49.36 15.41 50.45 11.11 50 8.71c-1.2-3.92-5.66-6.94-9.9-5.34-5.49 2.06-7 10.26-8.52 16.19-1.89-6-3.72-13.65-8-17.53A7.21 7.21 0 0017.9 0c-4 .35-9.66 5.32-7.35 10.85 2.22 5.31 9.54 8.67 14.36 11.35H2.83A2.84 2.84 0 000 25.07v11.18a2.84 2.84 0 002.84 2.83h.27v36h57v-36h.11A2.83 2.83 0 0063 36.25V25.07a2.85 2.85 0 00-2.83-2.84zM41.77 5.87c2.07-.3 4.9 1.29 5.17 3.17.39 2.73-3.35 5.2-5 6.35-2.48 1.72-4.85 2.61-7.17 4 .86-3.64 2.5-12.85 7-13.52zm-22.54 9.85C17 14.25 12.79 11.34 12.89 8c.11-3.51 5.66-6.45 8.68-3.8 3.8 3.33 5.62 11 7 16.36a68.14 68.14 0 01-9.34-4.84zm5.88 56.43H6V39.08h19.11zm0-36.07H3V25.23h22.11zm10 36.07h-7.06V25.23h7.07zm22 0H38.05V39.08h19.08zM60 36.08H38V25.23h22z"/>
</svg>
